public/images/provider-icons/icon-django.svg

<?xml version="1.0" encoding="iso-8859-1"?>
<!-- Generator: Adobe Illustrator 17.1.0, SVG Export Plug-In . SVG Version: 6.00 Build 0)  -->
<!DOCTYPE svg PUBLIC "-//W3C//DTD SVG 1.1//EN" "http://www.w3.org/Graphics/SVG/1.1/DTD/svg11.dtd">
<svg version="1.1" id="django" xmlns="http://www.w3.org/2000/svg" xmlns:xlink="http://www.w3.org/1999/xlink" x="0px" y="0px"
	 viewBox="0 0 60 60" style="enable-background:new 0 0 60 60;" xml:space="preserve">
<g id="Image_xA0_12">
	<g>
		<path style="fill-rule:evenodd;clip-rule:evenodd;fill:#888888;" d="M32.4666,12.5H26.228l-0.1193,10.3837
			c-0.9655-0.2537-1.7628-0.338-2.8119-0.338c-6.7564,0-11.1212,4.3126-11.1212,10.9513c0,6.8926,4.1127,10.4862,12.0027,10.4865
			c2.6437,0,4.9804-0.2537,8.2958-0.8879L32.4666,12.5z M26.1087,38.5714c-0.9232,0.1266-1.511,0.1688-2.2241,0.1688
			c-3.3154,0-5.1201-1.9026-5.1201-5.3702c0-3.5516,1.8887-5.5813,5.1621-5.5813c0.7973,0,1.4268,0.0845,2.1821,0.338V38.5714z
			 M35.5005,34.9799c0,5.5341-0.2872,7.6404-1.1891,9.4575c-0.8607,1.7766-2.2133,2.9326-5.0007,4.2541L35.1724,51.5
			c2.7871-1.4044,4.14-2.6843,5.1649-4.7084c1.1066-2.1064,1.4755-4.5429,1.4755-9.623l0.0115-15.4083h-6.2386L35.5005,34.9799z
			 M35.5858,12.5v6.2385h6.2386V12.5H35.5858z"/>
	</g>
</g>
</svg>

<svg xmlns="http://www.w3.org/2000/svg" viewBox="0 0 60 60" enable-background="new 0 0 60 60"><path d="M32.467 12.5h-6.239l-.119 10.384c-.966-.254-1.763-.338-2.812-.338-6.756 0-11.121 4.313-11.121 10.951 0 6.893 4.113 10.486 12.003 10.486 2.644 0 4.98-.254 8.296-.888l-.008-30.596zm-6.358 26.071c-.923.127-1.511.169-2.224.169-3.315 0-5.12-1.903-5.12-5.37 0-3.552 1.889-5.581 5.162-5.581.797 0 1.427.085 2.182.338v10.445zm9.392-3.591c0 5.534-.287 7.64-1.189 9.457-.861 1.777-2.213 2.933-5.001 4.254l5.862 2.809c2.787-1.404 4.14-2.684 5.165-4.708 1.107-2.106 1.476-4.543 1.476-9.623l.011-15.408h-6.239l-.085 13.22zm.085-22.48v6.239h6.239v-6.239h-6.239z" fill-rule="evenodd" clip-rule="evenodd" fill="#888"/></svg>
